default/images/icon/printer.svg

<svg xmlns="http://www.w3.org/2000/svg" viewBox="0 0 20 20"><rect x="0" fill="none" width="20" height="20"/><g><path d="M12 11H7v1h5v-1zm1 4H7v1h6v-1zm-3-2H7v1h3v-1zm7-7h-2V2H5v4H3c-.6 0-1 .4-1 1v5c0 .6.4 1 1 1h2v5h10v-5h2c.6 0 1-.4 1-1V7c0-.6-.4-1-1-1zm-3 11H6v-7h8v7zm0-11H6V3h8v3zm2 3h-1V8h1v1z"/></g></svg>

<?xml version="1.0" encoding="utf-8"?>
<!-- Generator: Adobe Illustrator 24.3.0, SVG Export Plug-In . SVG Version: 6.00 Build 0)  -->
<svg version="1.1" id="レイヤー_1" xmlns="http://www.w3.org/2000/svg" xmlns:xlink="http://www.w3.org/1999/xlink" x="0px"
	 y="0px" viewBox="0 0 20 20" style="enable-background:new 0 0 20 20;" xml:space="preserve">
<style type="text/css">
	.st0{fill:none;}
	.st1{fill:#FFFFFF;}
</style>
<rect class="st0" width="20" height="20"/>
<g>
	<path class="st1" d="M12,11H7v1h5V11z M13,15H7v1h6V15z M10,13H7v1h3V13z M17,6h-2V2H5v4H3C2.4,6,2,6.4,2,7v5c0,0.6,0.4,1,1,1h2v5
		h10v-5h2c0.6,0,1-0.4,1-1V7C18,6.4,17.6,6,17,6z M14,17H6v-7h8V17z M14,6H6V3h8V6z M16,9h-1V8h1V9z"/>
</g>
</svg>
